src/images/svg/symbols/pound-brent.svg

<svg width="24" height="24" viewBox="0 0 24 24" fill="none" xmlns="http://www.w3.org/2000/svg">
<path d="M17.25 4.5H6.75V19.5H17.25V4.5Z" fill="#5798B4"/>
<path fill-rule="evenodd" clip-rule="evenodd" d="M6.375 4.5H17.625C17.8321 4.5 18 4.66789 18 4.875C18 5.08211 17.8321 5.25 17.625 5.25H6.375C6.16789 5.25 6 5.08211 6 4.875C6 4.66789 6.16789 4.5 6.375 4.5ZM6.375 6H17.625C17.8321 6 18 6.16789 18 6.375C18 6.58211 17.8321 6.75 17.625 6.75H6.375C6.16789 6.75 6 6.58211 6 6.375C6 6.16789 6.16789 6 6.375 6ZM17.625 18.75H6.375C6.16789 18.75 6 18.9179 6 19.125C6 19.3321 6.16789 19.5 6.375 19.5H17.625C17.8321 19.5 18 19.3321 18 19.125C18 18.9179 17.8321 18.75 17.625 18.75ZM6.375 17.25H17.625C17.8321 17.25 18 17.4179 18 17.625C18 17.8321 17.8321 18 17.625 18H6.375C6.16789 18 6 17.8321 6 17.625C6 17.4179 6.16789 17.25 6.375 17.25Z" fill="#3B7B96"/>
<path d="M14.2431 12.8625C14.2431 14.05 13.2332 15 12.0004 15C10.7676 15 9.75781 14.05 9.75781 12.8625C9.75781 11.675 12.0004 9 12.0004 9C12.0004 9 14.2431 11.6875 14.2431 12.8625Z" fill="#FFC521"/>
<path d="M12.0001 14.4383C11.0952 14.4383 10.3477 13.7383 10.3477 12.8633C10.3477 12.7633 10.4395 12.6758 10.5444 12.6758C10.6493 12.6758 10.7411 12.7633 10.7411 12.8633C10.7411 13.5258 11.305 14.0633 12.0001 14.0633C12.105 14.0633 12.1968 14.1508 12.1968 14.2508C12.1968 14.3508 12.105 14.4383 12.0001 14.4383Z" fill="white"/>
<mask id="mask0_12766_80147" style="mask-type:alpha" maskUnits="userSpaceOnUse" x="12" y="0" width="12" height="8">
<path d="M23.0625 0H13.6875C13.1697 0 12.75 0.419733 12.75 0.9375V6.5625C12.75 7.08027 13.1697 7.5 13.6875 7.5H23.0625C23.5803 7.5 24 7.08027 24 6.5625V0.9375C24 0.419733 23.5803 0 23.0625 0Z" fill="white"/>
</mask>
<g mask="url(#mask0_12766_80147)">
<path d="M23.0625 0H13.6875C13.1697 0 12.75 0.419733 12.75 0.9375V6.5625C12.75 7.08027 13.1697 7.5 13.6875 7.5H23.0625C23.5803 7.5 24 7.08027 24 6.5625V0.9375C24 0.419733 23.5803 0 23.0625 0Z" fill="#0D47A1"/>
<path d="M23.9883 0.722254C23.9219 0.31692 23.5753 0.0078125 23.1575 0.0078125H22.9382L19.3448 2.39949V0.0078125H17.4052V2.39951L13.8118 0.0078125H13.5925C13.1747 0.0078125 12.8281 0.31692 12.7617 0.722277L15.833 2.76647H12.75V4.73692H15.833L12.7617 6.78107C12.8281 7.18641 13.1747 7.49551 13.5925 7.49551H13.8118L17.4052 5.10384V7.49551H19.3448V5.10384L22.9382 7.49551H23.1575C23.5753 7.49551 23.9219 7.18643 23.9883 6.78107L20.917 4.73687H24V2.76643H20.917L23.9883 0.722254Z" fill="white"/>
<path d="M18.9569 0.0078125V3.16051H24V4.34279H18.9569V7.49549H17.7931V4.34279H12.75V3.16051H17.7931V0.0078125H18.9569ZM17.3945 4.73687L13.2948 7.44031C13.1879 7.39929 13.0915 7.33683 13.0105 7.2581L12.9527 7.19607L16.682 4.73687H17.3945ZM20.3611 4.73687L23.8893 7.06344C23.8364 7.15751 23.7665 7.24041 23.6837 7.30776L23.6193 7.35529L19.6485 4.73687H20.3611ZM13.09 0.176696L17.0172 2.76643H16.3047L12.839 0.481004C12.8983 0.36067 12.9846 0.256429 13.09 0.176696ZM23.4485 0.0602902C23.583 0.11058 23.7012 0.194866 23.7935 0.302701L20.0574 2.76643H19.3448L23.4485 0.0602902Z" fill="#F44336"/>
<path fill-rule="evenodd" clip-rule="evenodd" d="M23.0625 0.46875H13.6875C13.4286 0.46875 13.2188 0.678617 13.2188 0.9375V6.5625C13.2188 6.82138 13.4286 7.03125 13.6875 7.03125H23.0625C23.3214 7.03125 23.5312 6.82138 23.5312 6.5625V0.9375C23.5312 0.678616 23.3214 0.46875 23.0625 0.46875ZM13.6875 0C13.1697 0 12.75 0.419733 12.75 0.9375V6.5625C12.75 7.08027 13.1697 7.5 13.6875 7.5H23.0625C23.5803 7.5 24 7.08027 24 6.5625V0.9375C24 0.419733 23.5803 0 23.0625 0H13.6875Z" fill="black" fill-opacity="0.04"/>
</g>
</svg>

<svg width="24" height="24" fill="none" xmlns="http://www.w3.org/2000/svg"><path d="M17.25 4.5H6.75v15h10.5v-15Z" fill="#5798B4"/><path fill-rule="evenodd" clip-rule="evenodd" d="M6.375 4.5h11.25a.375.375 0 0 1 0 .75H6.375a.375.375 0 1 1 0-.75Zm0 1.5h11.25a.375.375 0 0 1 0 .75H6.375a.375.375 0 1 1 0-.75Zm11.25 12.75H6.375a.375.375 0 0 0 0 .75h11.25a.375.375 0 0 0 0-.75Zm-11.25-1.5h11.25a.375.375 0 0 1 0 .75H6.375a.375.375 0 0 1 0-.75Z" fill="#3B7B96"/><path d="M14.243 12.863C14.243 14.05 13.233 15 12 15c-1.232 0-2.242-.95-2.242-2.137C9.758 11.675 12 9 12 9s2.243 2.688 2.243 3.863Z" fill="#FFC521"/><path d="M12 14.438c-.905 0-1.652-.7-1.652-1.575 0-.1.091-.187.196-.187.105 0 .197.087.197.187 0 .663.564 1.2 1.26 1.2.104 0 .196.088.196.188s-.092.187-.197.187Z" fill="#fff"/><mask id="a" style="mask-type:alpha" maskUnits="userSpaceOnUse" x="12" y="0" width="12" height="8"><path d="M23.063 0h-9.375a.937.937 0 0 0-.938.938v5.625c0 .517.42.937.938.937h9.374c.518 0 .938-.42.938-.938V.938A.937.937 0 0 0 23.062 0Z" fill="#fff"/></mask><g mask="url(#a)"><path d="M23.063 0h-9.375a.937.937 0 0 0-.938.938v5.625c0 .517.42.937.938.937h9.374c.518 0 .938-.42.938-.938V.938A.937.937 0 0 0 23.062 0Z" fill="#0D47A1"/><path d="M23.988.722a.847.847 0 0 0-.83-.714h-.22l-3.593 2.391V.008h-1.94V2.4L13.812.008h-.22a.847.847 0 0 0-.83.714l3.071 2.044H12.75v1.97h3.083l-3.071 2.045a.847.847 0 0 0 .83.715h.22l3.593-2.392v2.392h1.94V5.104l3.593 2.392h.22c.417 0 .764-.31.83-.715l-3.071-2.044H24v-1.97h-3.083L23.988.721Z" fill="#fff"/><path d="M18.957.008V3.16H24v1.182h-5.043v3.152h-1.164V4.343H12.75V3.16h5.043V.008h1.164Zm-1.563 4.729-4.1 2.703a.84.84 0 0 1-.284-.182l-.057-.062 3.729-2.46h.713Zm2.967 0 3.528 2.326a.855.855 0 0 1-.205.245l-.065.047-3.97-2.618h.712ZM13.09.177l3.927 2.59h-.712L12.839.48a.856.856 0 0 1 .251-.304ZM23.448.06c.135.05.253.135.346.243l-3.737 2.463h-.712L23.449.06Z" fill="#F44336"/><path fill-rule="evenodd" clip-rule="evenodd" d="M23.063.469h-9.375a.469.469 0 0 0-.47.469v5.625c0 .258.21.468.47.468h9.374c.26 0 .47-.21.47-.468V.938a.469.469 0 0 0-.47-.47ZM13.688 0a.937.937 0 0 0-.938.938v5.625c0 .517.42.937.938.937h9.374c.518 0 .938-.42.938-.938V.938A.937.937 0 0 0 23.062 0h-9.375Z" fill="#000" fill-opacity=".04"/></g></svg>
